brandFactory_export/2.Regular/Bateria_2Regular.svg

<?xml version="1.0" encoding="UTF-8"?>
<svg width="24px" height="24px" viewBox="0 0 24 24" version="1.1" xmlns="http://www.w3.org/2000/svg" xmlns:xlink="http://www.w3.org/1999/xlink">
    <title>2.Regular/Bateria_2Regular</title>
    <g id="Symbols" stroke="none" stroke-width="1" fill="none" fill-rule="evenodd">
        <g id="2.Regular/Bateria_2Regular" fill="#5CB615" fill-rule="nonzero">
            <path d="M18.2605042,19.6067227 C18.2605042,20.5042017 18.0621849,21.1394958 17.6487395,21.5394958 C17.2386555,21.9394958 16.6,22.1310924 15.6957983,22.1310924 L9.08739496,22.1310924 C8.18319328,22.1310924 7.54117647,21.9394958 7.13445378,21.5394958 C6.7210084,21.1394958 6.52268908,20.5042017 6.52268908,19.6067227 L6.52268908,6.57478992 C6.52268908,5.70084034 6.7210084,5.07563025 7.13781513,4.66554622 C7.55462185,4.2487395 8.19327731,4.04705882 9.08739496,4.04705882 L15.6991597,4.04705882 C16.6067227,4.04705882 17.2453782,4.24537815 17.6554622,4.6487395 C18.0655462,5.05546218 18.2638655,5.68403361 18.2638655,6.57478992 L18.2605042,19.6067227 Z M10.6739496,2.02352941 C10.6739496,1.87563025 10.6907563,1.68403361 10.7781513,1.6 C10.8655462,1.51260504 11.0638655,1.49243697 11.2117647,1.49243697 L13.789916,1.49243697 C13.9142857,1.49243697 14.1394958,1.50588235 14.2235294,1.59327731 C14.3142857,1.68067227 14.3277311,1.89915966 14.3277311,2.02352941 L14.3277311,2.55798319 L10.6739496,2.55798319 L10.6739496,2.02352941 Z M18.7243697,3.59663866 C18.0420168,2.92436975 17.0941176,2.59159664 15.8403361,2.56470588 L15.8403361,2.02352941 C15.8403361,1.39831933 15.6588235,0.900840336 15.2957983,0.541176471 C14.9361345,0.181512605 14.4285714,0 13.789916,0 L11.2117647,0 C10.5764706,0 10.0689076,0.18487395 9.70588235,0.54789916 C9.34285714,0.907563025 9.16134454,1.40168067 9.16134454,2.02352941 L9.16134454,2.55798319 L9.08739496,2.55798319 C7.7697479,2.55798319 6.77815126,2.90420168 6.06218487,3.61680672 C5.35630252,4.31932773 5.01344538,5.28739496 5.01344538,6.57478992 L5.01344538,19.6067227 C5.01344538,20.9243697 5.35966387,21.902521 6.07226891,22.5983193 C6.77815126,23.287395 7.76638655,23.6235294 9.0907563,23.6235294 L15.702521,23.6235294 C17.0268908,23.6235294 18.0151261,23.287395 18.7210084,22.5983193 C19.4336134,21.8991597 19.7798319,20.9210084 19.7798319,19.6067227 L19.7798319,6.57478992 C19.7731092,5.27058824 19.4302521,4.29579832 18.7243697,3.59663866 L18.7243697,3.59663866 Z" id="Bateria_2Regular"></path>
        </g>
    </g>
</svg>

<svg width="24" height="24" viewBox="0 0 24 24" xmlns="http://www.w3.org/2000/svg"><path d="M18.26 19.607c0 .897-.198 1.532-.611 1.932-.41.4-1.049.592-1.953.592H9.087c-.904 0-1.546-.192-1.953-.592-.413-.4-.611-1.035-.611-1.932V6.575c0-.874.198-1.5.615-1.91.417-.416 1.055-.618 1.95-.618h6.611c.908 0 1.546.198 1.956.602.41.406.609 1.035.609 1.926l-.003 13.032zM10.675 2.024c0-.148.017-.34.104-.424.088-.087.286-.108.434-.108h2.578c.124 0 .35.014.434.101.09.088.104.306.104.43v.535h-3.654v-.534zm8.05 1.573c-.682-.673-1.63-1.005-2.884-1.032v-.541c0-.626-.181-1.123-.544-1.483C14.936.181 14.429 0 13.79 0h-2.578c-.636 0-1.143.185-1.506.548-.363.36-.545.854-.545 1.476v.534h-.074c-1.317 0-2.309.346-3.025 1.059-.706.702-1.049 1.67-1.049 2.958v13.032c0 1.317.347 2.296 1.06 2.991.705.69 1.693 1.026 3.018 1.026h6.612c1.324 0 2.312-.337 3.018-1.026.713-.699 1.059-1.677 1.059-2.991V6.575c-.007-1.304-.35-2.28-1.056-2.978z" fill="#5CB615" fill-rule="nonzero"/></svg>
